assets/images/MCCGroupIcons/MCC-RentalCar.svg

<svg xmlns="http://www.w3.org/2000/svg" viewBox="0 0 40 40"><style type="text/css">.st0{fill-rule:evenodd;clip-rule:evenodd}</style><path fill-rule="evenodd" d="M2 17.5407L2 32C2 33.1046 2.89543 34 4 34H8C9.10457 34 10 33.1046 10 32V28H16.5H25.8027C26.8401 26.2066 28.7792 25 31 25H34.8676C35.9919 25 37.0721 25.3146 38 25.8826V17.5407C38 17.0223 37.9496 16.5064 37.8502 16H39C39.5523 16 40 15.5523 40 15V14C40 12.8954 39.1046 12 38 12H36.4L34.689 7.72251C34.252 6.63006 33.3586 5.78626 32.2176 5.49892C29.8653 4.9065 25.3859 4 20 4C14.6141 4 10.1347 4.9065 7.78237 5.49892C6.64139 5.78626 5.74798 6.63006 5.311 7.72251L3.6 12H2C0.895431 12 0 12.8954 0 14V15C0 15.5523 0.447715 16 1 16H2.14975C2.05038 16.5064 2 17.0223 2 17.5407ZM7.34965 13.5608L8.74048 10.2228C8.90883 9.81881 9.20554 9.48425 9.61481 9.32905C10.8182 8.87268 13.9149 8 19.9992 8C26.0835 8 29.181 8.87267 30.3849 9.32904C30.7943 9.48425 31.0912 9.8189 31.2596 10.2231L32.6502 13.5604C32.8485 14.0364 32.6444 14.5668 32.153 14.723C30.6828 15.1905 27.1101 16 19.9983 16C12.8868 16 9.31576 15.1905 7.84651 14.7231C7.35529 14.5668 7.15139 14.0366 7.34965 13.5608ZM26 20.5615C26 20.2315 26.2246 19.9438 26.5448 19.8638L32.7575 18.3106C33.3886 18.1528 34 18.6302 34 19.2808V20C34 21.1046 33.1046 22 32 22H27.4384C26.644 22 26 21.356 26 20.5615ZM6 19.2808C6 18.6302 6.61139 18.1528 7.24254 18.3106L13.4552 19.8638C13.7754 19.9438 14 20.2315 14 20.5615C14 21.356 13.356 22 12.5616 22H8C6.89543 22 6 21.1046 6 20V19.2808ZM31 29C29.8954 29 29 29.8954 29 31V32H16.5C16.2239 32 16 32.2239 16 32.5V33.7324C16 33.8996 16.0836 34.0557 16.2227 34.1484L18.4962 35.6641C18.8247 35.8831 19.2107 36 19.6056 36H29V37C29 38.1046 29.8954 39 31 39H34.8676C35.5701 39 36.2212 38.6314 36.5826 38.029L37.7652 36.058C38.5252 34.7913 38.5252 33.2087 37.7652 31.942L36.5826 29.971C36.2212 29.3686 35.5701 29 34.8676 29H31ZM36 34C36 34.5523 35.5523 35 35 35C34.4477 35 34 34.5523 34 34C34 33.4477 34.4477 33 35 33C35.5523 33 36 33.4477 36 34Z" class="st0" clip-rule="evenodd"/></svg>

<svg xmlns="http://www.w3.org/2000/svg" viewBox="0 0 40 40"><style>.st0{fill-rule:evenodd;clip-rule:evenodd}</style><path fill-rule="evenodd" d="M2 17.54V32a2 2 0 0 0 2 2h4a2 2 0 0 0 2-2v-4h15.803A6 6 0 0 1 31 25h3.868c1.124 0 2.204.315 3.132.883V17.54q0-.78-.15-1.541H39a1 1 0 0 0 1-1v-1a2 2 0 0 0-2-2h-1.6l-1.711-4.277c-.437-1.093-1.33-1.937-2.471-2.224A51.3 51.3 0 0 0 20 4c-5.386 0-9.865.907-12.218 1.499-1.14.287-2.034 1.131-2.471 2.224L3.6 12H2a2 2 0 0 0-2 2v1a1 1 0 0 0 1 1h1.15A8 8 0 0 0 2 17.54m5.35-3.98 1.39-3.337c.169-.404.466-.739.875-.894C10.818 8.873 13.915 8 19.999 8s9.182.873 10.386 1.329c.41.155.706.49.875.894l1.39 3.337c.199.476-.006 1.007-.497 1.163C30.683 15.19 27.11 16 19.998 16s-10.682-.81-12.151-1.277c-.492-.156-.696-.686-.497-1.162M26 20.562a.72.72 0 0 1 .545-.697l6.212-1.553a1 1 0 0 1 1.243.97V20a2 2 0 0 1-2 2h-4.562A1.44 1.44 0 0 1 26 20.561m-20-1.28a1 1 0 0 1 1.243-.97l6.212 1.553a.72.72 0 0 1 .545.697c0 .795-.644 1.439-1.438 1.439H8a2 2 0 0 1-2-2zM31 29a2 2 0 0 0-2 2v1H16.5a.5.5 0 0 0-.5.5v1.232a.5.5 0 0 0 .223.416l2.273 1.516a2 2 0 0 0 1.11.336H29v1a2 2 0 0 0 2 2h3.868a2 2 0 0 0 1.715-.971l1.182-1.971a4 4 0 0 0 0-4.116l-1.182-1.971A2 2 0 0 0 34.868 29zm5 5a1 1 0 1 1-2 0 1 1 0 0 1 2 0" class="st0" clip-rule="evenodd"/></svg>
